X:216
T:Polonäs efter Sam Wåhlberg (Gm)
S:efter Sam Wåhlberg
B:Sam Wåhlbergs notbok, nr 216
B:http://www.smus.se/earkiv/fmk/browselarge.php?lang=sw&katalogid=Ma+10&bildnr=00027
R:Slängpolska
O:Kisa, Östergötland
Z:Nils L
M:3/4
L:1/16
K:Gm
G2AB A2d2 D2d2 | d2cB A2G2 F2D2 | G2AB A2d2 D2d2 | d2cB A2G2 F2D2 | S
G2BG G2BG G2BG | F2AF F2AF F2AF | G2BG G2BG G2BG | F2AF F2AF F2AF |
B2GB c4 d4 | D2EF G8 :: b2ag f2e2 d2c2 | d2cB A2G2 F2D2 |
b2ag f2e2 d2c2 | d2cB A2G2 F2D2 S||

